svgs/sharp-light/paragraph.svg

<svg xmlns="http://www.w3.org/2000/svg" viewBox="0 0 448 512"><!--! Font Awesome Pro 6.4.2 by @fontawesome - https://fontawesome.com License - https://fontawesome.com/license (Commercial License) Copyright 2023 Fonticons, Inc. --><path d="M32 192c0-88.4 71.6-160 160-160h64H432h16V64H432 384l0 400v16H352V464l0-400H288V464v16H256V464l0-112H192c-88.4 0-160-71.6-160-160zM256 320V64H192C121.3 64 64 121.3 64 192s57.3 128 128 128h64z"/></svg>

<svg xmlns="http://www.w3.org/2000/svg" viewBox="0 0 448 512"><!--! Font Awesome Pro 6.6.0 by @fontawesome - https://fontawesome.com License - https://fontawesome.com/license (Commercial License) Copyright 2024 Fonticons, Inc. --><path d="M32 192c0-88.4 71.6-160 160-160l64 0 176 0 16 0 0 32-16 0-48 0 0 400 0 16-32 0 0-16 0-400-64 0 0 400 0 16-32 0 0-16 0-112-64 0c-88.4 0-160-71.6-160-160zM256 320l0-256-64 0C121.3 64 64 121.3 64 192s57.3 128 128 128l64 0z"/></svg>
